static/GSW.svg

<?xml version="1.0" encoding="UTF-8" standalone="no"?>
<svg width="150px" height="150px" viewBox="0 0 150 150" version="1.1" xmlns="http://www.w3.org/2000/svg" xmlns:xlink="http://www.w3.org/1999/xlink">
    <!-- Generator: Sketch 39.1 (31720) - http://www.bohemiancoding.com/sketch -->
    <title>GSW</title>
    <desc>Created with Sketch.</desc>
    <defs>
        <polygon id="path-1" points="99.8070067 0.192426368 0 0.192426368 0 100.210505 99.8070067 100.210505 99.8070067 0.192426368"></polygon>
    </defs>
    <g id="Page-1" stroke="none" stroke-width="1" fill="none" fill-rule="evenodd">
        <g id="GSW">
            <g id="Page-1">
                <g id="Group-3" transform="translate(25.000000, 25.039404)">
                    <mask id="mask-2" fill="white">
                        <use xlink:href="#path-1"></use>
                    </mask>
                    <g id="Clip-2"></g>
                    <path d="M49.904598,0.1918779 C22.387805,0.1918779 -0.000547325568,22.626962 -0.000547325568,50.2039338 C-0.000547325568,77.7781632 22.387805,100.210505 49.904598,100.210505 C77.4213909,100.210505 99.8070067,77.7781632 99.8070067,50.2039338 C99.8070067,22.626962 77.4213909,0.1918779 49.904598,0.1918779" id="Fill-1" fill="#FEFEFE" mask="url(#mask-2)"></path>
                </g>
                <path d="M74.9048716,26.6024517 C48.0913921,26.6024517 26.3680403,48.3848589 26.3680403,75.2433376 C26.3680403,102.101816 48.0913921,123.878739 74.9048716,123.878739 C101.710141,123.878739 123.438966,102.101816 123.438966,75.2433376 C123.438966,48.3848589 101.710141,26.6024517 74.9048716,26.6024517" id="Fill-4" fill="#0F4B90"></path>
                <path d="M112.10577,92.8296902 C104.722348,91.1733168 97.8835146,88.6393946 91.6440032,85.6337899 C90.6834468,85.1675921 89.7365736,84.6904249 88.8033835,84.2050307 C84.2359516,81.8329066 80.0242814,79.2249411 76.1930024,76.5593866 C75.4212733,76.0191456 74.6604908,75.4789046 73.9243379,74.9386636 C73.8750786,74.9057555 73.8312925,74.8701051 73.7875065,74.8399394 C72.8023205,74.1187039 71.8527106,73.3974685 70.9249938,72.6762331 C69.4143752,71.4997692 67.9776456,70.3315323 66.6202782,69.1797495 C65.0467172,67.8442298 63.5798847,66.5333913 62.2252539,65.2719149 C61.0320841,64.1640095 59.9210132,63.0917545 58.900251,62.071604 C58.6813208,61.8577015 58.4760737,61.6465413 58.26809,61.4353811 C56.6589528,59.8036888 55.2687459,58.3091134 54.135782,57.0421523 C54.1029424,56.0768486 54.0783128,55.2322079 54.0564198,54.4945184 C53.9989506,52.6489235 53.9715843,51.5711839 53.9715843,51.5711839 L52.6716861,50.9815807 L51.7685989,51.7713747 L51.4620966,52.0373817 C51.4620966,52.0373817 51.4757797,52.7503901 51.503146,53.9789584 C51.22401,53.6361659 51.010553,53.3674166 50.8271989,53.1398024 C50.8162524,52.1031978 50.8107791,51.3051769 50.8053059,50.7759052 C50.7998326,50.3042227 50.7998326,50.0437004 50.7998326,50.0437004 L48.9991315,50.0437004 L48.966292,51.1159554 L47.8825874,51.3847047 C47.8825874,51.3847047 47.8388013,53.660847 47.7731222,57.2889629 C45.1897456,63.2041904 42.4859573,67.8963343 40.0448852,71.5244502 C38.8079294,73.3618181 37.6366527,74.9222096 36.5857876,76.2275634 C35.3679882,77.7331081 34.30344,78.9040874 33.479715,79.7459858 C33.3264639,78.6847002 33.2197354,77.6097028 33.1485831,76.5264785 C33.082904,75.5885982 33.0418546,74.6452332 33.0418546,73.6908989 C33.0418546,72.7310799 33.082904,71.7849725 33.1485831,70.8388652 C33.7999005,61.136466 37.7324347,52.3362967 43.8624811,45.5544897 C45.1924822,44.0818531 46.6319484,42.7024561 48.1562501,41.4327526 C54.7542599,35.9343608 63.0681352,32.4378772 72.1728961,31.8565011 C73.07051,31.7989119 73.9681239,31.7577768 74.879421,31.7577768 C75.938496,31.7577768 76.9838878,31.8126236 78.0238064,31.8894092 C87.1832998,32.5695095 95.5108583,36.2031101 102.081502,41.8441036 C103.542861,43.097353 104.913912,44.4465843 106.18918,45.8863129 C112.070193,52.5337452 115.871369,61.0651652 116.585629,70.4604223 C116.667728,71.5299349 116.719724,72.6049322 116.719724,73.6908989 C116.719724,74.4779505 116.692358,75.2567751 116.651308,76.030115 C116.31744,82.0577784 114.713776,87.7453917 112.10577,92.8296902 L112.10577,92.8296902 Z M34.4539545,84.5121728 C34.2870202,83.8841769 34.1365057,83.2506964 33.9996743,82.6144735 C34.4375348,82.0001893 34.9273912,81.3008926 35.48019,80.5001293 L34.4539545,84.5121728 Z M38.8298225,76.054796 L36.3613841,90.0873502 C35.8852109,88.9602484 35.458297,87.8029809 35.0806423,86.626517 L36.9333394,78.3336806 C37.3985661,77.6316416 37.8938957,76.8720134 38.391962,76.0877041 C38.5917358,75.7778197 38.7860364,75.4761623 38.9885469,75.1525661 L38.8298225,76.054796 Z M46.7167839,64.7207045 L45.4415153,71.9166049 L44.7792514,75.6763531 L40.8248242,98.037394 C40.222766,97.1954956 39.6453376,96.3398855 39.1089585,95.4541097 L42.5872125,75.8052431 L43.304209,71.7740032 L43.9062671,68.3543051 L44.3304444,65.9657269 C45.5126676,63.7444314 46.6593147,61.4189271 47.7211263,59.0413182 L46.7167839,64.7207045 Z M66.2179939,72.6542943 L66.9295171,74.9057555 L73.5056338,95.6954356 C72.6025466,95.7557671 71.7186159,95.8133562 70.8401583,95.8764301 L64.2722515,74.949633 L63.5415719,72.6186439 L63.2131765,71.57107 L60.9609318,64.3998507 C61.4179487,64.8495945 61.8722289,65.2856266 62.3237725,65.7216586 C63.1420242,66.5059679 63.952066,67.2765654 64.7484247,68.0197396 L66.2179939,72.6542943 Z M69.7071944,72.6762331 L70.3995612,74.8618781 L73.820346,85.6612133 L76.9318919,95.4733061 L76.9346285,95.4897601 L76.9318919,95.4897601 C76.0835373,95.5363799 75.2433925,95.585742 74.4141943,95.6378465 L73.6452019,93.1944215 L67.8763904,74.8893015 L67.173077,72.6625214 L66.0975823,69.2510503 C67.2852788,70.3315323 68.4565555,71.3708792 69.6059392,72.3663486 L69.7071944,72.6762331 Z M84.1976388,95.1442253 C83.3219179,95.1771333 82.4544069,95.2155261 81.5923691,95.2539189 L76.2285785,78.2102753 L76.0616442,77.683746 C76.1136402,77.7276235 76.1656361,77.7605315 76.217632,77.8016666 C77.3177564,78.6600191 78.3959878,79.4772364 79.4550628,80.2588034 L84.1976388,95.1442253 Z M91.5454846,94.9358074 C90.601348,94.9550038 89.659948,94.9742002 88.7267579,94.9988812 L85.3689155,84.4052215 C86.6277643,85.2361506 87.8373538,86.0094905 89.0113672,86.7279836 L91.5454846,94.9358074 Z M98.8249146,92.0645774 C102.037716,93.5756067 104.465105,94.4723519 105.948357,94.9550038 C103.857573,94.9056417 101.780473,94.8782183 99.7143187,94.8672489 L98.8249146,92.0645774 Z M94.4791496,89.8734476 C95.6285333,90.4932165 96.7122379,91.0444269 97.7247902,91.5380481 L98.7783919,94.8672489 C98.4609431,94.8672489 98.1462309,94.8699913 97.8287821,94.8699913 C97.2321972,94.8699913 96.6356123,94.8699913 96.0417641,94.8727336 L94.947113,91.3735077 L94.4791496,89.8734476 Z M90.1634875,87.4217956 C91.2690852,88.0854419 92.3391066,88.6997261 93.3543956,89.2619058 L95.1140473,94.883703 C94.6324008,94.8891876 94.1562275,94.8974147 93.6718444,94.9028993 C93.2750334,94.908384 92.8754857,94.9111264 92.4786747,94.916611 L90.8722741,89.7226189 L90.1634875,87.4217956 Z M84.2167952,83.6318816 C84.2687911,83.6620474 84.3125772,83.6976978 84.3645731,83.7306059 L84.2359516,83.6922131 L87.8099876,95.0235623 C86.9041637,95.0509857 86.0065498,95.0811514 85.1144091,95.1113172 L80.7522244,81.2131377 C81.9371842,82.0687478 83.0865679,82.8667688 84.2113219,83.626397 L84.2304783,83.6894708 L84.2359516,83.6922131 L84.2167952,83.6318816 Z M70.8374217,73.4248919 C71.4121135,73.9130284 71.9758589,74.3819686 72.5368676,74.845424 C73.0020943,75.2293517 73.4618478,75.6023099 73.9216013,75.9725258 C74.2007373,76.1973977 74.48261,76.433239 74.761746,76.6526262 L76.3106774,81.5367338 L80.6783354,95.2923116 C79.7232523,95.3361891 78.7791157,95.3882935 77.8459256,95.4376557 L76.7348547,91.9411721 L73.8613955,82.9298426 L71.2917019,74.8536511 L70.8374217,73.4248919 Z M99.3339274,102.39223 C94.4216804,102.150904 87.2544521,101.945229 77.3588058,101.953456 C76.0616442,101.956198 74.71796,101.961683 73.3250164,101.96991 C70.1915775,101.991848 66.8446817,102.030241 63.2104399,102.0988 C66.6175416,101.942486 70.0136967,101.827308 73.3332263,101.745038 C74.6851204,101.709387 76.0178582,101.681964 77.3341762,101.657283 C85.4701708,101.503712 92.9493746,101.528393 98.6415606,101.596951 C101.638168,101.632602 104.142183,101.684706 105.99488,101.725841 C105.682904,102.071376 105.359982,102.408684 105.03706,102.74325 C103.638643,102.636298 101.753106,102.510151 99.3339274,102.39223 L99.3339274,102.39223 Z M56.4318127,103.582406 C61.297537,103.472712 67.1375008,103.393184 73.2593373,103.404154 C74.6550175,103.406896 76.0589076,103.415123 77.4682709,103.428835 C85.6781545,103.508362 94.0987583,103.777112 101.186624,104.405108 C101.851625,104.465439 102.524835,104.523028 103.165206,104.588844 C102.853231,104.879533 102.527572,105.153767 102.20465,105.433485 C94.873224,111.77926 85.3278661,115.626763 74.879421,115.626763 C68.5824403,115.626763 62.613855,114.222685 57.2555377,111.724413 C56.9627185,109.478437 56.6863191,106.708673 56.4318127,103.582406 L56.4318127,103.582406 Z M53.4105756,109.684112 C53.0849169,109.492149 52.7674681,109.286473 52.4500192,109.08354 C52.3350809,107.424424 52.2283524,105.611737 52.1270971,103.689357 C52.4335995,103.678388 52.7537849,103.672903 53.0684971,103.661934 C53.1834355,106.023088 53.2956372,108.066132 53.4105756,109.684112 L53.4105756,109.684112 Z M55.613561,91.5270787 C55.4575732,88.8642665 55.3152686,86.1438651 55.1811738,83.4234638 L57.0420807,89.3002986 L58.1777813,92.8735677 L59.4338935,96.8307644 C58.2297772,96.948685 57.0776569,97.0666057 55.9611127,97.1845263 C55.944693,96.9678814 55.9337465,96.7457519 55.9173267,96.529107 C55.8133348,94.8974147 55.7120796,93.2273296 55.613561,91.5270787 L55.613561,91.5270787 Z M54.6885808,72.3828027 C54.6666878,71.8151383 54.6420581,71.2255352 54.6174285,70.6688401 L55.1620174,72.401999 L56.0267918,75.1690202 L59.1903336,85.263574 L60.2548818,88.6695604 L62.7151103,96.5263647 C61.9105417,96.5976655 61.1169196,96.6717087 60.3424539,96.7457519 L58.782576,91.7766317 L57.6660319,88.2280436 L55.0060296,79.7459858 C54.9376139,78.21576 54.8691982,76.7019883 54.8062558,75.2128976 C54.7652064,74.2475939 54.7268936,73.320683 54.6885808,72.3828027 L54.6885808,72.3828027 Z M44.9160828,98.4953648 L47.3681013,84.6163817 C47.3161054,89.4922624 47.2860025,94.1981179 47.2887391,98.1882227 C46.4349112,98.295174 45.6522357,98.3966406 44.9160828,98.4953648 L44.9160828,98.4953648 Z M47.3462083,105.252491 C46.8399321,104.808232 46.3446025,104.355746 45.862956,103.884063 C46.3008165,103.870351 46.7797263,103.853897 47.3243153,103.834701 C47.3297885,104.336549 47.3379984,104.808232 47.3462083,105.252491 L47.3462083,105.252491 Z M46.3363926,71.974194 L47.6445007,64.5643911 C47.6061879,66.8953802 47.5651385,69.418333 47.5268257,72.0427525 C47.510406,73.1890506 47.4939862,74.3545452 47.4803031,75.5310091 C47.45841,76.998161 47.4392536,78.4790246 47.4200973,79.965373 L47.296949,79.9434342 L43.9883659,98.6215125 C43.0633857,98.7476601 42.2560805,98.8628384 41.5555038,98.9615626 L45.6878118,75.6242486 L46.3363926,71.974194 Z M55.8105982,59.1921469 C56.3579238,59.7680383 56.9107226,60.3357027 57.4553115,60.8978824 C58.0382133,61.4957126 58.6129051,62.0825734 59.187597,62.6557224 C59.2587493,62.7297656 59.3381115,62.8092935 59.4092638,62.8805943 L59.6966097,63.7883089 L61.3878458,69.1002216 L62.5016533,72.6021899 L63.2542259,74.9715717 L63.2843288,75.0675536 L69.9261246,95.9422462 C69.055877,96.00532 68.1993125,96.0711362 67.3536944,96.13421 L62.6275382,81.0074622 L61.5657266,77.6179299 L60.7584214,75.0291608 L59.9866923,72.5473431 L56.2594052,60.6236484 L55.8105982,59.1921469 Z M54.1439919,57.4343069 C54.2178808,57.5110925 54.2862965,57.5823933 54.3574488,57.6564365 L55.2140133,60.3850648 L59.0206627,72.5254043 L59.8170214,75.0538419 L61.2017551,79.4772364 L62.238937,82.7790139 L66.4533439,96.2082532 C65.4900509,96.2850387 64.5486509,96.3645666 63.6209341,96.4440945 L60.7994708,87.3422678 L59.7513423,83.9719318 L57.0092412,75.1361121 L56.1690965,72.4376495 L54.4778605,66.9776504 C54.3848151,64.4766362 54.3027163,62.192267 54.2370372,60.1629353 C54.2041977,59.1921469 54.1713581,58.265236 54.1439919,57.4343069 L54.1439919,57.4343069 Z M50.8381454,53.8253874 C51.0652855,54.080425 51.2924256,54.3217509 51.5168291,54.5740462 C51.5551419,56.0686216 51.6071378,58.1692541 51.6673437,60.6839799 C51.7521791,63.966561 51.856171,67.9594081 51.9765826,72.2703667 C52.0039489,73.2713208 52.0313152,74.288729 52.0614181,75.3198489 C52.2502454,81.8219372 52.4719122,88.8011927 52.7045256,95.0043659 C52.7346285,95.859976 52.7674681,96.7046168 52.8003076,97.5273188 C52.4746489,97.5657115 52.1654099,97.601362 51.8479611,97.6370124 C51.8260681,97.077575 51.8069117,96.4989413 51.782282,95.9312769 C51.5277756,89.3085256 51.3334751,82.0852018 51.1856972,75.3554993 C51.1638041,74.2996984 51.1446477,73.2576091 51.1227547,72.231974 C51.0406559,68.1650836 50.9804501,64.3751697 50.9311908,61.1063003 C50.8874047,58.1994198 50.8600384,55.692921 50.8381454,53.8253874 L50.8381454,53.8253874 Z M41.1477462,71.6122051 C41.7607509,70.5756006 42.3819654,69.5170573 43.0004433,68.4064096 L42.7486735,69.8598498 L42.4230148,71.7109293 L41.6978084,75.8600899 L38.4713242,94.343462 C37.9294719,93.3891276 37.4231957,92.4128546 36.957969,91.4119004 L39.6781771,75.9972069 L40.1625602,73.2548668 C40.2802352,73.0656453 40.4006468,72.8572275 40.5155852,72.668006 C40.7263056,72.3197288 40.9370259,71.9687093 41.1477462,71.6122051 L41.1477462,71.6122051 Z M74.879421,28.9578476 C50.2169309,28.9578476 30.2231279,48.9851572 30.2231279,73.7018682 C30.2231279,98.4213217 50.2169309,118.448631 74.879421,118.448631 C87.4186498,118.448631 98.7400792,113.265608 106.851444,104.926152 C107.125107,104.780808 107.450766,104.385911 107.738112,103.993757 C115.055854,96.0245164 119.527504,85.392464 119.527504,73.7018682 C119.527504,48.9851572 99.5419111,28.9578476 74.879421,28.9578476 L74.879421,28.9578476 Z" id="Fill-6" fill="#FEC42F"></path>
                <path d="M33.0415809,73.69227 C33.0415809,74.6466044 33.0826303,75.5899694 33.1483094,76.5251073 C33.7448943,76.4675182 34.9052245,76.3605669 36.585514,76.2261923 C37.6363791,74.9235807 38.8076558,73.3631892 40.0446116,71.5230791 C36.3145878,71.215937 33.9610879,70.9389606 33.1483094,70.8402364 C33.0826303,71.7836014 33.0415809,72.732451 33.0415809,73.69227 M116.71945,73.69227 C116.71945,72.603561 116.667454,71.5285637 116.585356,70.4617934 C106.61582,71.4024161 97.3304422,71.9837922 88.8414226,72.312873 C89.2710732,65.7586802 92.4264051,59.8516797 96.8898451,54.1229313 C100.496721,49.4828919 104.29516,46.959939 106.188906,45.8876841 C104.913638,44.4452132 103.542587,43.0959819 102.081228,41.8427324 C98.8191677,45.0704667 88.1600023,56.7720318 87.4019563,72.3732045 C83.4639489,72.5130638 79.7092955,72.5980764 76.1407328,72.6419538 C75.9245392,48.3256244 77.8319688,33.3250242 78.0235327,31.888038 C76.9836142,31.8112525 75.940959,31.759148 74.8791473,31.759148 C73.9678503,31.759148 73.0702363,31.8002831 72.1726224,31.8551299 C72.3778695,33.8104184 73.844702,48.7287484 73.9158543,72.6638925 C72.9060387,72.6693772 71.9071695,72.6748619 70.9247201,72.6748619 C71.852437,73.3960973 72.8020468,74.1173328 73.7872328,74.8385682 L73.9240642,74.8385682 L73.9240642,74.9372924 C74.6602171,75.4802758 75.4209997,76.0205168 76.1927287,76.5580154 C76.1845188,75.9766393 76.1763089,75.4034903 76.1653624,74.8330835 C79.720242,74.8330835 83.455739,74.8577646 87.3718534,74.9235807 C87.4347959,77.9017621 87.8726563,81.006091 88.8031098,84.2064019 C89.7362999,84.6917961 90.6831731,85.1689633 91.6437295,85.6351611 C89.8621848,81.8534741 88.9700441,78.3131131 88.8140563,74.9510041 C97.3277055,75.1100599 106.64866,75.4446254 116.651035,76.0287438 C116.692084,75.2554039 116.71945,74.4793216 116.71945,73.69227 M48.1559765,41.4313814 C46.6316748,42.7038272 45.1922085,44.0804819 43.8622074,45.5558609 C44.9431754,46.1180406 47.3322515,47.5111494 50.0469863,50.0450716 L50.799559,50.0450716 C50.799559,50.0450716 50.799559,50.3028516 50.8050322,50.7745341 C51.1224811,51.0926455 51.4454031,51.4217263 51.7683252,51.7700035 L52.6714124,50.9829519 L53.9713106,51.5698127 C53.9713106,51.5698127 53.9986769,52.6502947 54.0561461,54.4958895 C55.9334728,56.9420569 57.5672396,59.4238747 58.8507181,61.9742509 L62.1647744,65.0511565 C59.0340721,52.4775272 50.3644351,43.5457256 48.1559765,41.4313814" id="Fill-8" fill="#FEFEFE"></path>
                <rect id="Rectangle" x="0" y="0" width="150" height="150"></rect>
            </g>
        </g>
    </g>
</svg>

<svg xmlns="http://www.w3.org/2000/svg" xmlns:xlink="http://www.w3.org/1999/xlink" width="150" height="150"><defs><path id="A" d="M99.807.192H0V100.21h99.807V.192z"/></defs><g fill="none" fill-rule="evenodd"><g transform="translate(25 25.039)"><mask id="B" fill="#fff"><use xlink:href="#A"/></mask><path d="M49.905.192C22.388.192-.001 22.627-.001 50.204s22.388 50.007 49.905 50.007 49.902-22.432 49.902-50.007S77.42.192 49.905.192" fill="#fefefe" mask="url(#B)"/></g><path d="M74.905 26.602c-26.813 0-48.537 21.782-48.537 48.64S48.09 123.88 74.905 123.88c26.805 0 48.534-21.777 48.534-48.635s-21.73-48.64-48.534-48.64" fill="#0f4b90"/><path d="M112.106 92.83c-7.383-1.656-14.222-4.2-20.462-7.196l-2.84-1.43c-4.567-2.372-8.78-4.98-12.6-7.646l-2.27-1.62c-.05-.033-.093-.07-.137-.1-.985-.72-1.935-1.442-2.863-2.164-1.51-1.176-2.947-2.345-4.305-3.496-1.574-1.336-3.04-2.646-4.395-3.908a125.92 125.92 0 0 1-3.325-3.2l-.632-.636c-1.61-1.632-3-3.126-4.132-4.393l-.08-2.548-.085-2.923-1.3-.6-.903.8-.307.266.04 1.942-.676-.84-.027-3.096H49l-.033 1.072-1.084.27-.11 5.904c-2.583 5.915-5.287 10.607-7.728 14.235-1.237 1.837-2.408 3.398-3.46 4.703-1.218 1.506-2.282 2.677-3.106 3.518-.153-1.06-.26-2.136-.33-3.22-.066-.938-.107-1.88-.107-2.836a41.06 41.06 0 0 1 .107-2.852c.65-9.702 4.584-18.503 10.714-25.284 1.33-1.473 2.77-2.852 4.294-4.122 6.598-5.498 14.912-8.995 24.017-9.576a42.13 42.13 0 0 1 2.707-.099c1.06 0 2.104.055 3.144.132 9.16.68 17.487 4.314 24.058 9.955 1.46 1.253 2.832 2.602 4.108 4.042 5.88 6.647 9.682 15.18 10.396 24.574.082 1.07.134 2.145.134 3.23 0 .787-.027 1.566-.068 2.34a41.8 41.8 0 0 1-4.546 16.8zm-77.652-8.318c-.167-.628-.317-1.26-.454-1.898l1.48-2.114-1.026 4.012zm4.376-8.457L36.36 90.087c-.476-1.127-.903-2.284-1.28-3.46l1.853-8.293 1.46-2.246.597-.935-.16.902zm7.887-11.334l-5.892 33.317c-.602-.842-1.18-1.698-1.716-2.583l3.478-19.65.717-4.03.602-3.42.424-2.39c1.182-2.22 2.33-4.547 3.39-6.924l-1.004 5.68zm19.5 7.934l.712 2.25 6.576 20.8-2.665.18L60.96 64.4l1.363 1.322 2.425 2.298 1.47 4.635zm3.49.022L76.932 95.5l-2.518.148-8.317-26.387 3.508 3.115.1.3zm14.5 22.468l-2.605.1-5.53-17.57c.052.044.104.077.156.118l3.237 2.457 4.743 14.885zm7.348-.208l-2.82.063-3.358-10.594c1.26.83 2.468 1.604 3.642 2.323l2.534 8.208zm7.28-2.87c3.213 1.51 5.64 2.408 7.123 2.9l-6.234-.088-.89-2.803zm-4.346-2.19a88.94 88.94 0 0 0 3.246 1.665l1.054 3.33-.95.003-1.787.003-1.563-5zm-4.316-2.452c1.106.664 2.176 1.278 3.19 1.84l1.76 5.622-1.442.02-1.193.014-1.606-5.194-.71-2.3zm-5.947-3.8c.052.03.096.066.148.1l-.13-.038 3.574 11.33-2.696.088-4.362-13.898c1.185.856 2.334 1.654 3.46 2.413l.02.063.005.003-.02-.06zm-13.38-10.207l1.7 1.42 1.385 1.127.84.68 1.55 4.884 4.368 13.756-2.832.145-1.11-3.496-5.897-18.516zm28.497 28.967c-4.912-.24-12.08-.447-21.975-.44l-4.034.016-10.115.13 10.123-.354 4-.088c8.136-.154 15.615-.13 21.307-.06l7.353.13c-.312.346-.635.683-.958 1.017-1.398-.107-3.284-.233-5.703-.35zm-42.902 1.2l16.828-.178 4.21.025c8.2.08 16.63.348 23.718.976l1.98.184c-.312.29-.638.565-.96.845-7.33 6.346-16.877 10.193-27.325 10.193a41.59 41.59 0 0 1-17.624-3.902c-.293-2.246-.57-5.016-.824-8.142zm-3.02 6.102c-.326-.192-.643-.398-.96-.6l-.323-5.394.94-.027.342 6.022zm2.203-18.157l-.432-8.104 4.253 13.407-3.473.354-.044-.655-.304-5.002zm-.925-19.144l-.07-1.714.545 1.733.865 2.767 6.688 21.357-2.373.22-5.336-17-.2-4.533-.118-2.83zm-9.772 26.113l2.452-13.88-.08 13.572-2.373.307zm2.43 6.757a36.84 36.84 0 0 1-1.483-1.368l1.46-.05.022 1.418zm-1-33.278l1.308-7.4-.118 7.478-.107 7.923-.123-.022-3.31 18.678-2.433.34 4.132-23.337.65-3.65zm9.474-12.782l1.645 1.706 1.954 1.983.287.908 10.23 32.154-2.572.192L55.81 59.192zm-1.667-1.758l.213.222 12.096 38.552-2.832.236-2.82-9.102-6.322-20.365-.334-9.543zm-3.306-3.61l.68.75.15 6.1.394 14.636.74 22.207-.952.1-.066-1.706-.597-20.576-.063-3.124-.192-11.126-.093-7.28zm-9.7 17.787L43 68.406l-.252 1.453-.326 1.85-3.952 22.633c-.542-.954-1.048-1.93-1.513-2.932l3.205-18.157.353-.587.632-1.056zM74.88 28.958c-24.662 0-44.656 20.027-44.656 44.744S50.217 118.45 74.88 118.45c12.54 0 23.86-5.183 31.972-13.522.274-.145.6-.54.887-.932a44.63 44.63 0 0 0 11.789-30.292c0-24.717-19.986-44.744-44.648-44.744z" fill="#fec42f"/><path d="M33.042 73.692l.107 2.833 3.437-.3 3.46-4.703-6.896-.683-.107 2.852m83.678 0l-.134-3.23c-9.97.94-19.255 1.522-27.744 1.85.43-6.554 3.585-12.46 8.048-18.2 3.607-4.64 7.405-7.163 9.3-8.235a41.79 41.79 0 0 0-4.108-4.045c-3.262 3.228-13.92 14.93-14.68 30.53l-11.26.27c-.216-24.316 1.69-39.317 1.883-40.754-1.04-.077-2.083-.13-3.144-.13-.91 0-1.81.04-2.707.096.205 1.955 1.672 16.874 1.743 40.81l-2.99.01 2.863 2.164h.137v.1c.736.543 1.497 1.083 2.27 1.62l-.027-1.725 11.206.1c.063 2.978.5 6.083 1.43 9.283l2.84 1.43c-1.782-3.782-2.674-7.322-2.83-10.684 8.514.16 17.835.494 27.837 1.078.04-.773.068-1.55.068-2.336M48.156 41.43a42.11 42.11 0 0 0-4.294 4.124c1.08.562 3.47 1.955 6.185 4.49h.753l.005.73c.317.318.64.647.963.995l.903-.787 1.3.587.085 2.926c1.877 2.446 3.51 4.928 4.795 7.478l3.314 3.077c-3.13-12.574-11.8-21.505-14.01-23.62" fill="#fefefe"/></g></svg>
